X:259
T:Flagon, The
R:Reel
B:The Athole Collection
M:C|
L:1/8
K:G
c|:BG G/G/G BGdG|BG G/G/G G2gd|BG G/G/G BGd_B|A/_B/c =Fc AfcA:|
|:g2 dB GBdB|g2 dB gbaf|g2 dB GBd_B|A=fcf AfcA:|
B/c/d gd B/c/d gd|B/c/d gd BGG_B|A/_B/c =fc A/B/c fc|A/_B/c =fc AFFc|
B/c/d g>d B/c/d gd|B/c/d gd BGGe|=fgag fgfd|cA=fc AFF||
c|B/c/d Gd BdGd|BdGd BGG_B|A/_B/c =Fc AcFc|Ac=Fc AFFc|
B/c/d Gd BdGd|BdGd BGGe|~=fgag ~fgfd|cA=fc AFF||

